X:4601
T:Dribbles of Brandy
T:Brothers in York
R:Jig
C:Trad. Airds 1788
O:England
Z:Paul Hardy's Annex Tunebook 2015 (see www.paulhardy.net). Creative Commons cc by-nc-sa licenced.
M:6/8
L:1/8
Q:3/8=100
K:Em
"Em"EGE G2A|"G"B2e dBG|"Am"A2B cBA|"Em"BAG "Bm"FED|
"Em"EGE G2A|"G"B2e dBG|"Am"A2B cBA|"Em"BGE E2z:|
|:"Em"e2f g2e|"D"fag "Bm"fed|"Em"e2f g2e|"Bm"fed "Em"e3|
"Em"e2f g2e|"D"fag "Bm"fed|"Em"e2B "Bm7"B2A|"Em"BGE E2z:|

